Sources/FrostedUI/Resources/Icons.xcassets/minimize24.imageset/minimize-24.svg

<svg width="24" height="24" viewBox="0 0 24 24" fill="none" xmlns="http://www.w3.org/2000/svg" data-fui-icon="true">
  <path
    d="M21.4034 13.7589C21.8176 13.7589 22.1533 14.0948 22.1534 14.5089C22.1534 14.9231 21.8176 15.2589 21.4034 15.2589H16.3195L22.5304 21.4698C22.8232 21.7628 22.8232 22.2375 22.5304 22.5304C22.2375 22.8232 21.7627 22.8231 21.4698 22.5304L15.2589 16.3195V21.4034C15.2589 21.8176 14.9231 22.1534 14.5089 22.1534C14.0948 22.1533 13.7589 21.8176 13.7589 21.4034V14.5089C13.759 14.0948 14.0948 13.759 14.5089 13.7589H21.4034ZM1.46985 1.46985C1.76275 1.17702 2.23752 1.17698 2.5304 1.46985L8.74133 7.68079V2.5968C8.74133 2.18259 9.07712 1.8468 9.49133 1.8468C9.90535 1.84703 10.2404 2.18273 10.2404 2.5968V9.49133C10.2401 9.90521 9.90521 10.2401 9.49133 10.2404H2.5968C2.18273 10.2404 1.84703 9.90535 1.8468 9.49133C1.84685 9.07716 2.18262 8.74133 2.5968 8.74133H7.68079L1.46985 2.5304C1.17696 2.2375 1.17696 1.76274 1.46985 1.46985Z"
    fill="currentColor"
  />
</svg>

<svg xmlns="http://www.w3.org/2000/svg" width="24" height="24" fill="none" data-fui-icon="true" viewBox="0 0 24 24"><path fill="currentColor" d="M21.403 13.759a.75.75 0 0 1 0 1.5H16.32l6.21 6.21a.75.75 0 0 1-1.06 1.061l-6.211-6.21v5.083a.75.75 0 0 1-1.5 0V14.51a.75.75 0 0 1 .75-.75zM1.47 1.469a.75.75 0 0 1 1.06 0l6.211 6.212V2.597a.75.75 0 0 1 1.5 0V9.49a.75.75 0 0 1-.75.75H2.597a.75.75 0 1 1 0-1.5H7.68L1.47 2.531a.75.75 0 0 1 0-1.061"/></svg>
